brandFactory_export/1.Light/Adjuntar_1Light.svg

<?xml version="1.0" encoding="UTF-8"?>
<svg width="24px" height="24px" viewBox="0 0 24 24" version="1.1" xmlns="http://www.w3.org/2000/svg" xmlns:xlink="http://www.w3.org/1999/xlink">
    <title>1.Light/Adjuntar_1Light</title>
    <g id="Symbols" stroke="none" stroke-width="1" fill="none" fill-rule="evenodd">
        <g id="1.Light/Adjuntar_1Light" fill="#5CB615" fill-rule="nonzero">
            <path d="M12.4420168,23.6235294 C8.95294118,23.6235294 7.02689076,21.8756303 7.02689076,18.6957983 L7.02689076,3.9394958 C7.02689076,1.39831933 8.56638655,0 11.3630252,0 C14.1563025,0 15.6957983,1.39831933 15.6957983,3.94285714 L15.6957983,16.7226891 C15.6957983,18.5915966 14.5193277,19.6672269 12.4621849,19.6672269 C10.405042,19.6672269 9.22857143,18.594958 9.22857143,16.7226891 L9.22857143,5.94621849 C9.22857143,5.67394958 9.47058824,5.45546218 9.7697479,5.45546218 C10.0689076,5.45546218 10.307563,5.67731092 10.307563,5.94621849 L10.307563,16.7226891 C10.307563,18.0605042 10.9932773,18.6823529 12.4588235,18.6823529 C13.9277311,18.6823529 14.610084,18.0605042 14.610084,16.7226891 L14.610084,3.94285714 C14.610084,1.95294118 13.5445378,0.98487395 11.3563025,0.98487395 C9.16806723,0.98487395 8.10252101,1.95294118 8.10252101,3.94285714 L8.10252101,18.6991597 C8.10252101,21.3142857 9.56134454,22.6420168 12.4352941,22.6420168 C15.3092437,22.6420168 16.7680672,21.3142857 16.7680672,18.6991597 L16.7546218,5.9394958 C16.7546218,5.66722689 16.9966387,5.4487395 17.292437,5.4487395 L17.2957983,5.4487395 C17.594958,5.4487395 17.8369748,5.66722689 17.8369748,5.9394958 L17.8537859,18.702521 C17.8571429,21.8756303 15.9310924,23.6235294 12.4420168,23.6235294" id="Path"></path>
        </g>
    </g>
</svg>

<svg width="24" height="24" viewBox="0 0 24 24" xmlns="http://www.w3.org/2000/svg"><path d="M12.442 23.624c-3.49 0-5.415-1.748-5.415-4.928V3.939C7.027 1.4 8.567 0 11.363 0c2.793 0 4.333 1.398 4.333 3.943v12.78c0 1.869-1.177 2.944-3.234 2.944S9.23 18.595 9.23 16.723V5.946c0-.272.242-.49.54-.49.3 0 .539.221.539.49v10.777c0 1.338.685 1.96 2.15 1.96 1.47 0 2.152-.622 2.152-1.96V3.943c0-1.99-1.065-2.958-3.254-2.958-2.188 0-3.253.968-3.253 2.958v14.756c0 2.615 1.458 3.943 4.332 3.943 2.874 0 4.333-1.328 4.333-3.943l-.013-12.76c0-.272.242-.49.537-.49h.004c.299 0 .541.218.541.49l.017 12.764c.003 3.173-1.923 4.92-5.412 4.92" fill="#5CB615" fill-rule="nonzero"/></svg>
